X:084 
T:If I Had a Wife 
B:CRE3.041 (DÃÂÃÂÃÂÃÂ¥ mBeadh Bean Agam)
F:file ID: cre.3/084if_i_had
R:slide % A-B-A
Q:180
M:12/8
L:1/8
K:G
D|G2e dBG F2E E2G|FGA DEF G2B DEF|
G2e dBG F2E E2G|FGA DEF G3 G2:|
|:B|d2B g2B d2c A2B|cBA efe d2B G2B|
d2B g2B d2c A2g|1 fed cBA G3 G2:|
[2 fed cBA G3 g3|:fed c2e dc/d/c B2d|
|fed cBA G2A B2d|fed c2e dc/d/c B2d|
[1 fed cBA G3 g3:|2 fed cBA G3 D2E/F/||\
"final" G12||

%%%

